; generated by PrusaSlicer 2.5.0+win64 on 2022-10-17 at 16:40:55 UTC

; 

; external perimeters extrusion width = 0.45mm
; perimeters extrusion width = 0.45mm
; infill extrusion width = 0.45mm
; solid infill extrusion width = 0.45mm
; top infill extrusion width = 0.40mm
; support material extrusion width = 0.35mm
; first layer extrusion width = 0.42mm

; external perimeters extrusion width = 0.45mm
; perimeters extrusion width = 0.45mm
; infill extrusion width = 0.45mm
; solid infill extrusion width = 0.45mm
; top infill extrusion width = 0.40mm
; support material extrusion width = 0.35mm
; first layer extrusion width = 0.42mm

M73 P0 R48
M73 Q0 S48
M201 X1000 Y1000 Z200 E5000 ; sets maximum accelerations, mm/sec^2
M203 X200 Y200 Z12 E120 ; sets maximum feedrates, mm / sec
M204 P1250 R1250 T1250 ; sets acceleration (P, T) and retract acceleration (R), mm/sec^2
M205 X8.00 Y8.00 Z0.40 E4.50 ; sets the jerk limits, mm/sec
M205 S0 T0 ; sets the minimum extruding and travel feed rate, mm/sec
M107
;TYPE:Custom
M862.3 P "MK3S" ; printer model check
M862.1 P0.4 ; nozzle diameter check
M115 U3.10.1 ; tell printer latest fw version
G90 ; use absolute coordinates
M83 ; extruder relative mode
M104 S215 ; set extruder temp
M140 S60 ; set bed temp
M190 S60 ; wait for bed temp
M109 S215 ; wait for extruder temp
G28 W ; home all without mesh bed level
G80 ; mesh bed leveling
G1 Z0.2 F720
G1 Y-3 F1000 ; go outside print area
G92 E0
G1 X60 E9 F1000 ; intro line
G1 X100 E12.5 F1000 ; intro line
G92 E0
M221 S95

; Don't change E values below. Excessive value can damage the printer.

M907 E538 ; set extruder motor current
G21 ; set units to millimeters
G90 ; use absolute coordinates
M83 ; use relative distances for extrusion
M900 K0.05 ; Filament gcode LA 1.5
M900 K30 ; Filament gcode LA 1.0
M107
;LAYER_CHANGE
;Z:0.2
;HEIGHT:0.2
;BEFORE_LAYER_CHANGE
G92 E0.0
;0.2


G1 E-.8 F2100
G1 Z.4 F720
;AFTER_LAYER_CHANGE
;0.2
; printing object Cinelog_gopro_.STL id:0 copy 0
G1 X142.363 Y115.991 F10800
G1 Z.2 F720
G1 E.8 F2100
M204 S800
;TYPE:Perimeter
;WIDTH:0.419999
G1 F1200
G1 X142.43 Y116.604 E.01932
G1 X142.411 Y117.221 E.01937
G1 X142.27 Y117.926 E.02255
G1 X142.014 Y118.599 E.02255
G1 X141.649 Y119.219 E.02255
G1 X141.187 Y119.769 E.02255
G1 X140.639 Y120.236 E.02255
G1 X140.022 Y120.604 E.02255
G1 X139.351 Y120.865 E.02255
G1 X138.647 Y121.011 E.02255
G1 X137.928 Y121.037 E.02255
G1 X137.219 Y120.945 E.02244
G1 X135.905 Y120.525 E.04322
G1 X135.026 Y120.269 E.02872
G1 X133.824 Y120.044 E.03836
G1 X132.489 Y119.964 E.04191
G1 X124.79 Y119.99 E.24139
G1 X123.385 Y120.088 E.04418
G1 X122.036 Y120.359 E.04313
G1 X120.068 Y121.003 E.06494
G1 X119.359 Y121.1 E.02244
G1 X118.64 Y121.079 E.02255
G1 X117.934 Y120.938 E.02255
G1 X117.262 Y120.681 E.02255
G1 X116.642 Y120.317 E.02255
G1 X116.092 Y119.854 E.02255
G1 X115.625 Y119.307 E.02255
G1 X115.257 Y118.689 E.02255
G1 X114.996 Y118.019 E.02255
G1 X114.85 Y117.314 E.02255
G1 X114.824 Y116.596 E.02255
G1 X114.916 Y115.886 E.02244
G1 X115.563 Y113.847 E.06707
G1 X115.829 Y112.297 E.04933
G1 X115.897 Y111.156 E.03581
G1 X115.854 Y98.482 E.3974
G1 X115.849 Y97.422 E.03325
G1 X115.752 Y96.052 E.04304
G1 X115.481 Y94.704 E.04313
G1 X114.838 Y92.735 E.06494
G1 X114.74 Y92.026 E.02244
G1 X114.762 Y91.307 E.02255
G1 X114.903 Y90.602 E.02255
G1 X115.159 Y89.93 E.02255
G1 X115.524 Y89.31 E.02255
G1 X115.986 Y88.759 E.02255
G1 X116.534 Y88.293 E.02255
G1 X117.152 Y87.924 E.02255
G1 X117.822 Y87.663 E.02255
G1 X118.526 Y87.517 E.02255
G1 X119.245 Y87.491 E.02255
G1 X119.955 Y87.584 E.02244
G1 X121.928 Y88.214 E.06494
G1 X123.35 Y88.485 E.04539
G1 X124.684 Y88.564 E.04191
G1 X131.727 Y88.541 E.22083
G1 X132.419 Y88.537 E.02169
G1 X133.717 Y88.449 E.04078
G1 X135.137 Y88.169 E.04539
G1 X137.106 Y87.526 E.06494
G1 X137.815 Y87.428 E.02244
G1 X138.534 Y87.45 E.02255
G1 X139.239 Y87.591 E.02255
G1 X139.911 Y87.847 E.02255
G1 X140.531 Y88.212 E.02255
G1 X141.082 Y88.674 E.02255
G1 X141.548 Y89.222 E.02255
G1 X141.917 Y89.839 E.02255
G1 X142.177 Y90.51 E.02255
G1 X142.323 Y91.214 E.02255
G1 X142.35 Y91.933 E.02255
G1 X142.257 Y92.642 E.02244
G1 X141.627 Y94.615 E.06494
G1 X141.356 Y96.037 E.04539
G1 X141.276 Y97.372 E.04191
G1 X141.324 Y111.107 E.43065
G1 X141.46 Y112.673 E.04931
G1 X141.692 Y113.825 E.03682
G1 X142.192 Y115.355 E.05047
G1 X142.347 Y115.933 E.01877
M204 S1000
G1 X142.736 Y115.94 F10800
M204 S800
;TYPE:External perimeter
G1 F1200
G1 X142.807 Y116.615 E.02129
G1 X142.787 Y117.264 E.02036
G1 X142.634 Y118.031 E.02453
G1 X142.355 Y118.762 E.02453
G1 X141.959 Y119.437 E.02453
G1 X141.455 Y120.036 E.02453
G1 X140.86 Y120.543 E.02453
G1 X140.188 Y120.944 E.02453
G1 X139.459 Y121.228 E.02453
G1 X138.693 Y121.387 E.02453
G1 X137.911 Y121.415 E.02453
G1 X137.136 Y121.314 E.02449
G1 X134.955 Y120.639 E.07158
G1 X133.801 Y120.42 E.03685
G1 X132.49 Y120.341 E.04116
G1 X125.501 Y120.365 E.21915
G1 X124.3 Y120.4 E.03769
G1 X123.458 Y120.458 E.02645
G1 X122.153 Y120.718 E.04171
G1 X120.153 Y121.372 E.066
G1 X119.379 Y121.478 E.02449
G1 X118.597 Y121.454 E.02453
G1 X117.83 Y121.301 E.02453
G1 X117.099 Y121.022 E.02453
G1 X116.424 Y120.626 E.02453
G1 X115.825 Y120.123 E.02453
G1 X115.318 Y119.527 E.02453
G1 X114.917 Y118.855 E.02453
G1 X114.633 Y118.126 E.02453
G1 X114.474 Y117.36 E.02453
G1 X114.446 Y116.578 E.02453
G1 X114.547 Y115.804 E.02449
G1 X115.193 Y113.776 E.06671
G1 X115.453 Y112.274 E.04782
G1 X115.52 Y111.158 E.03505
G1 X115.473 Y97.447 E.42989
G1 X115.382 Y96.125 E.04153
G1 X115.123 Y94.821 E.04171
G1 X114.469 Y92.82 E.066
G1 X114.363 Y92.046 E.02449
G1 X114.386 Y91.264 E.02453
G1 X114.54 Y90.497 E.02453
G1 X114.818 Y89.766 E.02453
G1 X115.215 Y89.091 E.02453
G1 X115.718 Y88.492 E.02453
G1 X116.314 Y87.985 E.02453
G1 X116.985 Y87.584 E.02453
G1 X117.715 Y87.3 E.02453
G1 X118.481 Y87.142 E.02453
G1 X119.263 Y87.113 E.02453
G1 X120.037 Y87.214 E.02449
G1 X122.042 Y87.854 E.066
G1 X123.373 Y88.108 E.04246
G1 X124.683 Y88.187 E.04116
G1 X132.394 Y88.161 E.24177
G1 X133.691 Y88.073 E.04078
G1 X135.02 Y87.81 E.04246
G1 X137.021 Y87.157 E.066
G1 X137.794 Y87.05 E.02449
G1 X138.577 Y87.074 E.02453
G1 X139.344 Y87.227 E.02453
G1 X140.075 Y87.506 E.02453
G1 X140.749 Y87.902 E.02453
G1 X141.348 Y88.406 E.02453
G1 X141.856 Y89.001 E.02453
G1 X142.257 Y89.673 E.02453
G1 X142.54 Y90.402 E.02453
G1 X142.699 Y91.168 E.02453
G1 X142.728 Y91.95 E.02453
G1 X142.626 Y92.725 E.02449
G1 X141.992 Y94.713 E.06543
G1 X141.733 Y96.06 E.04303
G1 X141.653 Y97.371 E.04116
G1 X141.7 Y111.081 E.42989
G1 X141.83 Y112.6 E.0478
G1 X142.051 Y113.707 E.0354
G1 X142.66 Y115.572 E.06151
G1 X142.724 Y115.881 E.00988
M204 S1000
G1 X142.428 Y116.195 F10800
;WIPE_START
G1 F8640
G1 X142.807 Y116.615 E-.17058
G1 X142.787 Y117.264 E-.14997
G1 X142.634 Y118.031 E-.18066
G1 X142.355 Y118.762 E-.18065
G1 X142.184 Y119.054 E-.07814
;WIPE_END
G1 E-.04 F2100
G1 Z.6 F720
G1 X138.375 Y114.874 F10800
G1 Z.2 F720
G1 E.8 F2100
M204 S800
;TYPE:Perimeter
G1 F1200
G1 X138.456 Y114.878 E.00253
G1 X139.055 Y115.093 E.01995
G1 X139.548 Y115.495 E.01995
G1 X139.87 Y116.008 E.01896
G1 X140.006 Y116.534 E.01705
G1 X140.011 Y116.628 E.00296
G1 X139.964 Y117.172 E.0171
G1 X139.743 Y117.7 E.01796
G1 X139.437 Y118.068 E.015
G1 X139.175 Y118.297 E.01091
G1 X138.725 Y118.522 E.01577
G1 X138.151 Y118.614 E.01824
G1 X137.738 Y118.559 E.01307
G1 X137.345 Y118.443 E.01283
G1 X136.82 Y118.084 E.01995
G1 X136.444 Y117.571 E.01995
G1 X136.277 Y117.096 E.01578
G1 X136.259 Y116.515 E.01823
G1 X136.291 Y116.326 E.00599
G1 X136.459 Y115.853 E.01575
G1 X136.811 Y115.388 E.01826
G1 X136.954 Y115.262 E.00599
G1 X137.437 Y114.976 E.0176
G1 X137.976 Y114.853 E.01732
G1 X138.315 Y114.871 E.01067
M204 S1000
G1 X138.347 Y115.239 F10800
M204 S800
;TYPE:External perimeter
G1 F1200
G1 X138.832 Y115.397 E.01599
G1 X139.236 Y115.708 E.01599
G1 X139.514 Y116.135 E.01598
G1 X139.634 Y116.617 E.01557
G1 X139.59 Y117.117 E.01574
G1 X139.379 Y117.58 E.01595
G1 X139.026 Y117.947 E.01595
G1 X138.572 Y118.176 E.01595
G1 X138.067 Y118.241 E.01596
G1 X137.542 Y118.121 E.01691
G1 X137.112 Y117.846 E.01599
G1 X136.799 Y117.444 E.01599
G1 X136.638 Y116.96 E.01599
G1 X136.647 Y116.451 E.01599
G1 X136.819 Y115.981 E.01569
G1 X137.14 Y115.591 E.01582
G1 X137.567 Y115.33 E.0157
G1 X138.046 Y115.226 E.01539
G1 X138.287 Y115.237 E.00755
M204 S1000
G1 X138.603 Y114.932 F10800
;WIPE_START
G1 F8640
G1 X138.832 Y115.397 E-.13117
G1 X139.236 Y115.708 E-.11773
G1 X139.514 Y116.135 E-.11769
G1 X139.634 Y116.617 E-.11464
G1 X139.59 Y117.117 E-.11594
G1 X139.379 Y117.58 E-.11748
G1 X139.243 Y117.722 E-.04534
;WIPE_END
G1 E-.04 F2100
G1 Z.6 F720
G1 X118.983 Y114.927 F10800
G1 Z.2 F720
G1 E.8 F2100
M204 S800
;TYPE:Perimeter
G1 F1200
G1 X119.055 Y114.913 E.00229
G1 X119.456 Y114.943 E.01262
G1 X119.955 Y115.099 E.01641
G1 X120.415 Y115.422 E.01762
G1 X120.717 Y115.808 E.01536
G1 X120.879 Y116.103 E.01054
G1 X121.008 Y116.613 E.01651
G1 X120.974 Y117.17 E.01748
G1 X120.926 Y117.356 E.00604
G1 X120.66 Y117.897 E.01891
G1 X120.175 Y118.361 E.02102
G1 X119.696 Y118.597 E.01674
G1 X119.151 Y118.678 E.01728
G1 X118.96 Y118.671 E.00599
G1 X118.439 Y118.553 E.01676
G1 X117.979 Y118.284 E.01669
G1 X117.842 Y118.174 E.00553
G1 X117.491 Y117.735 E.01761
G1 X117.311 Y117.264 E.01582
G1 X117.261 Y117.026 E.00762
G1 X117.264 Y116.504 E.01637
G1 X117.439 Y115.969 E.01765
G1 X117.811 Y115.453 E.01995
G1 X117.954 Y115.326 E.00599
G1 X118.481 Y115.026 E.01901
G1 X118.924 Y114.939 E.01416
M204 S1000
G1 X119.047 Y115.29 F10800
M204 S800
;TYPE:External perimeter
G1 F1200
G1 X119.347 Y115.304 E.00943
G1 X119.832 Y115.462 E.01599
G1 X120.231 Y115.764 E.01569
G1 X120.514 Y116.199 E.01629
G1 X120.633 Y116.69 E.01584
G1 X120.582 Y117.202 E.01613
G1 X120.364 Y117.663 E.01599
G1 X120.004 Y118.025 E.01599
G1 X119.55 Y118.245 E.01585
G1 X119.046 Y118.303 E.0159
G1 X118.55 Y118.19 E.01594
G1 X118.12 Y117.919 E.01594
G1 X117.804 Y117.52 E.01595
G1 X117.639 Y117.039 E.01595
G1 X117.642 Y116.532 E.01591
G1 X117.825 Y116.037 E.01654
G1 X118.153 Y115.646 E.01599
G1 X118.582 Y115.389 E.01568
G1 X118.988 Y115.303 E.01303
M204 S1000
G1 X119.171 Y115.017 F10800
;WIPE_START
G1 F8640
G1 X119.347 Y115.304 E-.0829
G1 X119.832 Y115.462 E-.11777
G1 X120.231 Y115.764 E-.11552
G1 X120.514 Y116.199 E-.11999
G1 X120.633 Y116.69 E-.11668
G1 X120.582 Y117.202 E-.11878
G1 X120.418 Y117.548 E-.08835
;WIPE_END
G1 E-.04 F2100
G1 Z.6 F720
G1 X119.358 Y89.945 F10800
G1 Z.2 F720
G1 E.8 F2100
M204 S800
;TYPE:Perimeter
G1 F1200
G1 X119.8 Y90.072 E.01441
G1 X119.971 Y90.158 E.00599
G1 X120.422 Y90.506 E.01788
G1 X120.715 Y90.929 E.01614
G1 X120.895 Y91.482 E.01822
G1 X120.918 Y91.805 E.01016
G1 X120.841 Y92.356 E.01744
G1 X120.615 Y92.844 E.01684
G1 X120.244 Y93.247 E.01719
G1 X120.091 Y93.361 E.00599
G1 X119.643 Y93.586 E.01572
G1 X119.067 Y93.678 E.01829
G1 X118.438 Y93.578 E.01995
G1 X117.879 Y93.275 E.01995
G1 X117.47 Y92.826 E.01904
G1 X117.212 Y92.222 E.02059
G1 X117.176 Y91.957 E.00838
G1 X117.206 Y91.393 E.01769
G1 X117.39 Y90.893 E.01673
G1 X117.734 Y90.443 E.01776
G1 X118.249 Y90.09 E.01956
G1 X118.834 Y89.927 E.01904
G1 X119.3 Y89.929 E.01461
M204 S1000
G1 X119.262 Y90.304 F10800
M204 S800
;TYPE:External perimeter
G1 F1200
G1 X119.747 Y90.462 E.01599
G1 X120.152 Y90.772 E.01599
G1 X120.43 Y91.199 E.01598
G1 X120.549 Y91.69 E.01584
G1 X120.497 Y92.202 E.01613
G1 X120.282 Y92.659 E.01583
G1 X119.92 Y93.025 E.01615
G1 X119.46 Y93.246 E.01599
G1 X118.954 Y93.302 E.01599
G1 X118.457 Y93.186 E.01599
G1 X118.029 Y92.912 E.01596
G1 X117.73 Y92.533 E.01512
G1 X117.555 Y92.05 E.0161
G1 X117.556 Y91.54 E.01598
G1 X117.729 Y91.063 E.01591
G1 X118.023 Y90.685 E.01502
G1 X118.448 Y90.411 E.01586
G1 X118.951 Y90.29 E.01622
G1 X119.202 Y90.301 E.00789
M204 S1000
G1 X119.517 Y89.995 F10800
;WIPE_START
G1 F8640
G1 X119.747 Y90.462 E-.13117
G1 X120.152 Y90.772 E-.11772
G1 X120.43 Y91.199 E-.11769
G1 X120.549 Y91.69 E-.11668
G1 X120.497 Y92.202 E-.11878
G1 X120.282 Y92.659 E-.11661
G1 X120.156 Y92.786 E-.04135
;WIPE_END
G1 E-.04 F2100
G1 Z.6 F720
G1 X138.29 Y89.875 F10800
G1 Z.2 F720
G1 E.8 F2100
M204 S800
;TYPE:Perimeter
G1 F1200
G1 X138.371 Y89.879 E.00257
G1 X138.875 Y90.037 E.01654
G1 X139.331 Y90.358 E.01749
G1 X139.547 Y90.619 E.01064
G1 X139.794 Y91.039 E.01526
G1 X139.921 Y91.531 E.01595
G1 X139.889 Y92.106 E.01804
G1 X139.841 Y92.292 E.00604
G1 X139.552 Y92.859 E.01995
G1 X139.19 Y93.232 E.0163
G1 X138.692 Y93.499 E.01772
G1 X138.51 Y93.556 E.00599
G1 X137.962 Y93.618 E.01727
G1 X137.438 Y93.514 E.01676
G1 X137.261 Y93.443 E.00599
G1 X136.808 Y93.159 E.01676
G1 X136.453 Y92.738 E.01727
G1 X136.359 Y92.571 E.00599
G1 X136.19 Y92.086 E.01611
G1 X136.175 Y91.515 E.01791
G1 X136.354 Y90.905 E.01995
G1 X136.698 Y90.424 E.01852
G1 X136.869 Y90.262 E.00741
G1 X137.372 Y89.969 E.01823
G1 X137.881 Y89.854 E.01637
G1 X138.23 Y89.872 E.01095
M204 S1000
G1 X138.262 Y90.239 F10800
M204 S800
;TYPE:External perimeter
G1 F1200
G1 X138.747 Y90.397 E.01599
G1 X139.152 Y90.708 E.01599
G1 X139.43 Y91.135 E.01598
G1 X139.549 Y91.604 E.01518
G1 X139.505 Y92.118 E.01618
G1 X139.279 Y92.599 E.01665
G1 X138.92 Y92.961 E.01599
G1 X138.47 Y93.18 E.01568
G1 X137.971 Y93.241 E.01579
G1 X137.473 Y93.13 E.01598
G1 X137.046 Y92.866 E.01574
G1 X136.729 Y92.475 E.01577
G1 X136.558 Y92.002 E.01578
G1 X136.557 Y91.469 E.01671
G1 X136.741 Y90.973 E.01658
G1 X137.068 Y90.582 E.01599
G1 X137.506 Y90.323 E.01596
G1 X137.962 Y90.226 E.01462
G1 X138.202 Y90.237 E.00755
M204 S1000
G1 X138.519 Y89.933 F10800
;WIPE_START
G1 F8640
G1 X138.747 Y90.397 E-.13118
G1 X139.152 Y90.708 E-.11772
G1 X139.43 Y91.135 E-.11769
G1 X139.549 Y91.604 E-.1118
G1 X139.505 Y92.118 E-.11912
G1 X139.279 Y92.599 E-.12259
G1 X139.157 Y92.721 E-.0399
;WIPE_END
G1 E-.04 F2100
G1 Z.6 F720
G1 X141.697 Y89.692 F10800
G1 Z.2 F720
G1 E.8 F2100
M204 S800
;TYPE:Solid infill
;WIDTH:0.423009
G1 F1200
G1 X140.874 Y88.869 E.03678
G1 X140.367 Y88.443 E.02091
G1 X139.788 Y88.103 E.02123
G1 X139.436 Y87.969 E.0119
G1 X141.808 Y90.341 E.10602
G1 X141.905 Y90.59 E.00845
G1 X142.006 Y91.076 E.01568
G1 X138.702 Y87.772 E.14768
G1 X138.501 Y87.732 E.00646
G1 X138.112 Y87.72 E.0123
G1 X142.057 Y91.664 E.1763
G1 X142.066 Y91.919 E.00807
G1 X142.033 Y92.178 E.00823
G1 X137.598 Y87.743 E.19819
G1 X137.132 Y87.814 E.01491
G1 X141.96 Y92.643 E.2158
G1 X141.831 Y93.051 E.01354
G1 X140.183 Y91.403 E.07367
G1 X140.209 Y91.58 E.00566
G1 X140.183 Y91.941 E.01143
G1 X141.702 Y93.459 E.06788
G1 X141.573 Y93.868 E.01354
G1 X140.103 Y92.398 E.06568
G1 X139.936 Y92.769 E.01285
G1 X141.443 Y94.276 E.06736
G1 X141.321 Y94.691 E.01367
G1 X139.721 Y93.091 E.07149
G1 X139.459 Y93.367 E.01202
G1 X141.235 Y95.143 E.07938
G1 X141.149 Y95.595 E.01453
M73 Q1 S48
G1 X139.141 Y93.587 E.08975
G1 X138.78 Y93.763 E.0127
G1 X141.073 Y96.056 E.10249
G1 X141.042 Y96.563 E.01605
G1 X138.338 Y93.859 E.12087
M73 P1 R48
G1 X137.944 Y93.901 E.01252
G1 X137.817 Y93.874 E.00412
G1 X141.172 Y97.23 E.14997
M204 S1000
;WIPE_START
G1 F8640
G1 X138.845 Y94.902 E-.76
;WIPE_END
G1 E-.04 F2100
G1 Z.6 F720
G1 X136.591 Y87.811 F10800
G1 Z.2 F720
G1 E.8 F2100
M204 S800
G1 F1200
G1 X138.366 Y89.587 E.07935
G1 X137.917 Y89.567 E.01421
G1 X137.827 Y89.585 E.0029
G1 X136.32 Y88.077 E.06737
G1 X135.914 Y88.209 E.01349
G1 X137.38 Y89.675 E.06553
G1 X137.151 Y89.756 E.00767
G1 X137.01 Y89.843 E.00523
G1 X135.508 Y88.34 E.06715
G1 X135.099 Y88.469 E.01355
G1 X136.683 Y90.053 E.0708
G1 X136.511 Y90.205 E.00727
G1 X136.416 Y90.324 E.00478
G1 X134.65 Y88.558 E.07893
G1 X134.201 Y88.646 E.01446
G1 X136.185 Y90.631 E.08869
G1 X136.089 Y90.804 E.00626
G1 X136.021 Y91.004 E.00668
G1 X133.745 Y88.727 E.10175
G1 X133.242 Y88.762 E.01593
G1 X135.902 Y91.422 E.11891
G1 X135.893 Y91.951 E.01671
G1 X132.739 Y88.797 E.14099
G1 X132.226 Y88.822 E.01622
G1 X140.994 Y97.59 E.39189
G1 X140.996 Y98.129 E.01705
G1 X131.691 Y88.823 E.41592
G1 X131.155 Y88.825 E.01693
G1 X140.998 Y98.668 E.43995
G1 X141 Y99.208 E.01705
G1 X130.619 Y88.827 E.46398
G1 X130.083 Y88.829 E.01693
G1 X141.002 Y99.747 E.488
G1 X141.004 Y100.287 E.01705
