; generated by PrusaSlicer 2.5.0+win64 on 2022-10-25 at 08:09:34 UTC

; 

; external perimeters extrusion width = 0.45mm
; perimeters extrusion width = 0.45mm
; infill extrusion width = 0.45mm
; solid infill extrusion width = 0.45mm
; top infill extrusion width = 0.40mm
; first layer extrusion width = 0.42mm

; external perimeters extrusion width = 0.45mm
; perimeters extrusion width = 0.45mm
; infill extrusion width = 0.45mm
; solid infill extrusion width = 0.45mm
; top infill extrusion width = 0.40mm
; first layer extrusion width = 0.42mm

; external perimeters extrusion width = 0.45mm
; perimeters extrusion width = 0.45mm
; infill extrusion width = 0.45mm
; solid infill extrusion width = 0.45mm
; top infill extrusion width = 0.40mm
; first layer extrusion width = 0.42mm

; external perimeters extrusion width = 0.45mm
; perimeters extrusion width = 0.45mm
; infill extrusion width = 0.45mm
; solid infill extrusion width = 0.45mm
; top infill extrusion width = 0.40mm
; first layer extrusion width = 0.42mm

; external perimeters extrusion width = 0.45mm
; perimeters extrusion width = 0.45mm
; infill extrusion width = 0.45mm
; solid infill extrusion width = 0.45mm
; top infill extrusion width = 0.40mm
; first layer extrusion width = 0.42mm

; external perimeters extrusion width = 0.45mm
; perimeters extrusion width = 0.45mm
; infill extrusion width = 0.45mm
; solid infill extrusion width = 0.45mm
; top infill extrusion width = 0.40mm
; first layer extrusion width = 0.42mm

; external perimeters extrusion width = 0.45mm
; perimeters extrusion width = 0.45mm
; infill extrusion width = 0.45mm
; solid infill extrusion width = 0.45mm
; top infill extrusion width = 0.40mm
; first layer extrusion width = 0.42mm

; external perimeters extrusion width = 0.45mm
; perimeters extrusion width = 0.45mm
; infill extrusion width = 0.45mm
; solid infill extrusion width = 0.45mm
; top infill extrusion width = 0.40mm
; first layer extrusion width = 0.42mm

; external perimeters extrusion width = 0.45mm
; perimeters extrusion width = 0.45mm
; infill extrusion width = 0.45mm
; solid infill extrusion width = 0.45mm
; top infill extrusion width = 0.40mm
; first layer extrusion width = 0.42mm

M73 P0 R33
M73 Q0 S33
M201 X1000 Y1000 Z200 E5000 ; sets maximum accelerations, mm/sec^2
M203 X200 Y200 Z12 E120 ; sets maximum feedrates, mm / sec
M204 P1250 R1250 T1250 ; sets acceleration (P, T) and retract acceleration (R), mm/sec^2
M205 X8.00 Y8.00 Z0.40 E4.50 ; sets the jerk limits, mm/sec
M205 S0 T0 ; sets the minimum extruding and travel feed rate, mm/sec
M107
;TYPE:Custom
M862.3 P "MK3S" ; printer model check
M862.1 P0.4 ; nozzle diameter check
M115 U3.10.1 ; tell printer latest fw version
G90 ; use absolute coordinates
M83 ; extruder relative mode
M104 S215 ; set extruder temp
M140 S60 ; set bed temp
M190 S60 ; wait for bed temp
M109 S215 ; wait for extruder temp
G28 W ; home all without mesh bed level
G80 ; mesh bed leveling
G1 Z0.2 F720
G1 Y-3 F1000 ; go outside print area
G92 E0
G1 X60 E9 F1000 ; intro line
G1 X100 E12.5 F1000 ; intro line
G92 E0
M221 S95

; Don't change E values below. Excessive value can damage the printer.

M907 E538 ; set extruder motor current
G21 ; set units to millimeters
G90 ; use absolute coordinates
M83 ; use relative distances for extrusion
M900 K0.05 ; Filament gcode LA 1.5
M900 K30 ; Filament gcode LA 1.0
M107
;LAYER_CHANGE
;Z:0.2
;HEIGHT:0.2
;BEFORE_LAYER_CHANGE
G92 E0.0
;0.2


G1 E-.8 F2100
G1 Z.4 F720
;AFTER_LAYER_CHANGE
;0.2
G1 X105.461 Y74.735 F10800
G1 Z.2 F720
G1 E.8 F2100
M204 S800
;TYPE:Skirt/Brim
;WIDTH:0.42
G1 F1200
G1 X105.999 Y74.153 E.02485
G1 X106.673 Y73.595 E.02745
G1 X107.34 Y73.179 E.02463
G1 X108.137 Y72.817 E.02744
G1 X108.977 Y72.57 E.02747
G1 X109.76 Y72.449 E.02484
G1 X139.735 Y72.423 E.93985
G1 X140.853 Y72.535 E.03523
G1 X141.942 Y72.847 E.03551
G1 X143.039 Y73.401 E.03853
G1 X143.941 Y74.096 E.03573
G1 X144.699 Y74.937 E.03548
G1 X145.296 Y75.908 E.03573
G1 X145.683 Y76.883 E.03289
G1 X145.922 Y78.089 E.03855
G1 X145.951 Y128.728 E1.58774
G1 X145.795 Y130.031 E.04114
G1 X145.372 Y131.272 E.04111
G1 X144.575 Y132.56 E.04751
G1 X141.618 Y135.944 E.1409
G1 X140.93 Y136.487 E.02748
G1 X140.011 Y137.006 E.0331
G1 X139.188 Y137.316 E.02758
G1 X138.336 Y137.506 E.02734
G1 X137.411 Y137.577 E.0291
G1 X112.43 Y137.575 E.78326
G1 X111.132 Y137.402 E.04106
G1 X109.969 Y136.996 E.03862
G1 X109.057 Y136.478 E.03288
G1 X108.183 Y135.754 E.03561
G1 X105.34 Y132.45 E.13666
G1 X104.857 Y131.716 E.02755
G1 X104.482 Y130.926 E.02741
G1 X104.22 Y130.09 E.02749
G1 X104.077 Y129.226 E.02745
G1 X104.05 Y78.609 E1.58706
G1 X104.206 Y77.306 E.04113
G1 X104.63 Y76.065 E.04113
G1 X105.429 Y74.786 E.04728
M204 S1000
;WIPE_START
G1 F8640
G1 X105.999 Y74.153 E-.1966
G1 X106.673 Y73.595 E-.20218
G1 X107.34 Y73.179 E-.18141
G1 X108.049 Y72.857 E-.1798
;WIPE_END
G1 E-.04 F2100
G1 Z.6 F720
G1 X107.652 Y76.494 F10800
G1 Z.2 F720
G1 E.8 F2100
M204 S800
G1 F1200
G1 X107.728 Y76.395 E.00392
G1 X108.075 Y76.055 E.01525
G1 X108.445 Y75.78 E.01444
G1 X108.872 Y75.546 E.01525
G1 X109.351 Y75.366 E.01604
G1 X109.803 Y75.266 E.01451
G1 X110.278 Y75.227 E.01496
G1 X116.867 Y75.228 E.20661
G1 X117.509 Y75.305 E.02025
G1 X118.114 Y75.495 E.01991
G1 X118.65 Y75.775 E.01894
G1 X119.296 Y76.281 E.02572
G1 X119.524 Y76.055 E.01006
G1 X119.895 Y75.779 E.0145
G1 X120.347 Y75.534 E.0161
G1 X120.828 Y75.358 E.01607
G1 X121.257 Y75.265 E.01376
G1 X121.714 Y75.227 E.01438
G1 X128.273 Y75.226 E.20568
G1 X128.845 Y75.282 E.01801
G1 X129.458 Y75.453 E.01995
G1 X130.034 Y75.735 E.0201
G1 X130.745 Y76.278 E.02806
G1 X130.951 Y76.074 E.0091
G1 X131.343 Y75.781 E.01533
G1 X131.796 Y75.534 E.01619
G1 X132.252 Y75.365 E.01523
G1 X132.728 Y75.262 E.01529
G1 X133.191 Y75.226 E.01456
G1 X139.763 Y75.228 E.20605
G1 X140.397 Y75.303 E.02001
G1 X140.972 Y75.478 E.01884
G1 X141.511 Y75.752 E.01896
G1 X142.008 Y76.127 E.01952
G1 X142.492 Y76.67 E.02281
G1 X142.786 Y77.155 E.01778
G1 X143.009 Y77.73 E.01933
G1 X143.131 Y78.36 E.02012
G1 X143.146 Y90.377 E.3768
G1 X143.051 Y91.052 E.02135
M73 Q1 S33
G1 X142.802 Y91.748 E.0232
G1 X142.383 Y92.41 E.02454
M73 P1 R33
G1 X140.559 Y94.545 E.08805
G1 X141.014 Y94.696 E.01504
G1 X141.586 Y95 E.02029
G1 X142.075 Y95.39 E.01962
G1 X142.479 Y95.852 E.01924
G1 X142.803 Y96.391 E.01971
G1 X143.02 Y96.969 E.01936
G1 X143.131 Y97.564 E.01898
G1 X143.142 Y109.631 E.37835
G1 X143.034 Y110.318 E.02182
G1 X142.806 Y110.94 E.02078
G1 X142.385 Y111.607 E.02473
G1 X140.558 Y113.745 E.08816
G1 X141.014 Y113.896 E.01506
G1 X141.584 Y114.199 E.02024
G1 X142.072 Y114.586 E.01952
G1 X142.475 Y115.046 E.01918
G1 X142.787 Y115.558 E.01879
G1 X143.031 Y116.205 E.02169
G1 X143.132 Y116.768 E.01793
G1 X143.144 Y128.803 E.37734
G1 X143.043 Y129.484 E.02159
G1 X142.823 Y130.106 E.02067
G1 X142.353 Y130.85 E.0276
G1 X139.934 Y133.671 E.11653
G1 X139.618 Y133.97 E.01362
G1 X139.249 Y134.239 E.01432
G1 X138.547 Y134.577 E.02443
G1 X138.047 Y134.712 E.01624
G1 X137.587 Y134.768 E.01451
G1 X135.392 Y134.773 E.06885
G1 X134.685 Y134.675 E.02236
G1 X134.13 Y134.49 E.01836
G1 X133.716 Y134.278 E.01457
G1 X133.323 Y134.003 E.01505
G1 X132.93 Y133.631 E.01697
G1 X130.727 Y131.057 E.10623
G1 X128.524 Y133.63 E.10621
G1 X128.166 Y133.972 E.01551
G1 X127.734 Y134.278 E.0166
G1 X127.059 Y134.591 E.02334
G1 X126.623 Y134.707 E.01414
G1 X126.187 Y134.765 E.01377
G1 X123.944 Y134.773 E.07036
G1 X123.273 Y134.684 E.0212
G1 X122.682 Y134.491 E.01951
G1 X122.244 Y134.265 E.01543
G1 X121.852 Y133.985 E.01511
G1 X121.48 Y133.631 E.01608
G1 X119.278 Y131.057 E.10623
G1 X117.075 Y133.63 E.1062
G1 X116.74 Y133.953 E.0146
G1 X116.32 Y134.257 E.01624
G1 X115.647 Y134.578 E.0234
G1 X115.171 Y134.707 E.01545
G1 X114.686 Y134.769 E.01535
G1 X112.466 Y134.771 E.06959
G1 X111.823 Y134.684 E.02036
G1 X111.26 Y134.502 E.01852
G1 X110.82 Y134.28 E.01548
G1 X110.425 Y134.004 E.01509
G1 X110.032 Y133.631 E.017
G1 X107.598 Y130.787 E.11737
G1 X107.311 Y130.36 E.01613
G1 X107.1 Y129.922 E.01524
G1 X106.927 Y129.348 E.0188
G1 X106.855 Y128.725 E.01966
G1 X106.853 Y116.983 E.36817
G1 X106.959 Y116.249 E.02326
G1 X107.168 Y115.655 E.01974
G1 X107.414 Y115.207 E.01602
M73 P1 R32
G1 X107.709 Y114.817 E.01534
G1 X108.032 Y114.492 E.01439
G1 X108.417 Y114.198 E.01518
G1 X108.843 Y113.959 E.0153
G1 X109.431 Y113.732 E.01978
G1 X107.573 Y111.554 E.08979
G1 X107.328 Y111.19 E.01373
G1 X107.138 Y110.816 E.01318
G1 X106.919 Y110.108 E.02323
G1 X106.853 Y109.502 E.01912
G1 X106.856 Y97.754 E.36833
G1 X106.96 Y97.047 E.02241
G1 X107.181 Y96.427 E.02064
G1 X107.414 Y96.006 E.01509
G1 X107.706 Y95.62 E.01519
G1 X108.051 Y95.276 E.01527
G1 X108.442 Y94.982 E.01532
M73 Q1 S32
G1 X108.869 Y94.747 E.01529
G1 X109.43 Y94.531 E.01885
G1 X107.56 Y92.337 E.09039
G1 X107.338 Y92.009 E.0124
G1 X107.151 Y91.647 E.01279
G1 X106.92 Y90.915 E.02406
G1 X106.852 Y90.285 E.01988
G1 X106.853 Y78.585 E.36683
G1 X106.958 Y77.855 E.02311
G1 X107.193 Y77.2 E.02182
G1 X107.43 Y76.783 E.01506
G1 X107.615 Y76.542 E.00954
M204 S1000
G1 X107.914 Y76.769 F10800
M204 S800
G1 F1200
G1 X108.003 Y76.653 E.00458
G1 X108.311 Y76.349 E.01358
G1 X108.659 Y76.091 E.01359
G1 X109.039 Y75.884 E.01357
G1 X109.469 Y75.725 E.01436
G1 X109.87 Y75.637 E.01287
G1 X110.3 Y75.603 E.01354
G1 X116.836 Y75.604 E.20492
G1 X117.415 Y75.67 E.01828
G1 X117.957 Y75.838 E.01779
G1 X118.435 Y76.085 E.01687
G1 X118.871 Y76.419 E.01722
G1 X119.263 Y76.854 E.01836
G1 X119.761 Y76.348 E.02225
G1 X120.109 Y76.09 E.01359
G1 X120.49 Y75.883 E.01359
G1 X120.921 Y75.724 E.01439
G1 X121.324 Y75.637 E.01293
G1 X121.736 Y75.604 E.01296
G1 X128.264 Y75.603 E.20468
G1 X128.791 Y75.656 E.0166
G1 X129.338 Y75.811 E.01784
G1 X129.851 Y76.065 E.01795
G1 X130.32 Y76.419 E.01842
G1 X130.713 Y76.854 E.0184
G1 X131.19 Y76.366 E.02141
G1 X131.557 Y76.091 E.01438
G1 X131.962 Y75.872 E.01444
G1 X132.368 Y75.724 E.01356
G1 X132.771 Y75.637 E.01291
G1 X133.199 Y75.603 E.01346
G1 X139.752 Y75.605 E.20548
G1 X140.305 Y75.669 E.01744
G1 X140.818 Y75.823 E.01679
G1 X141.3 Y76.065 E.01689
G1 X141.739 Y76.392 E.0172
G1 X142.198 Y76.907 E.02162
G1 X142.454 Y77.334 E.01561
G1 X142.642 Y77.82 E.01634
G1 X142.754 Y78.379 E.01788
G1 X142.769 Y90.364 E.37577
G1 X142.681 Y90.978 E.01945
G1 X142.455 Y91.599 E.02071
G1 X142.073 Y92.195 E.0222
G1 X139.838 Y94.808 E.10781
G1 X140.345 Y94.877 E.01604
G1 X140.856 Y95.038 E.01679
G1 X141.365 Y95.306 E.01805
G1 X141.826 Y95.674 E.01849
G1 X142.183 Y96.086 E.0171
G1 X142.457 Y96.541 E.01664
G1 X142.653 Y97.057 E.01731
G1 X142.754 Y97.582 E.01678
G1 X142.767 Y109.589 E.37645
G1 X142.673 Y110.209 E.01966
G1 X142.475 Y110.758 E.0183
G1 X142.089 Y111.373 E.02278
G1 X139.838 Y114.008 E.10866
G1 X140.345 Y114.077 E.01604
G1 X140.856 Y114.238 E.01679
G1 X141.366 Y114.506 E.01806
G1 X141.8 Y114.848 E.01734
G1 X142.181 Y115.283 E.01812
G1 X142.44 Y115.707 E.0156
G1 X142.671 Y116.321 E.02056
G1 X142.758 Y116.817 E.01577
G1 X142.767 Y128.789 E.37538
G1 X142.673 Y129.409 E.01966
G1 X142.475 Y129.958 E.01829
G1 X142.058 Y130.615 E.0244
G1 X139.667 Y133.405 E.11522
G1 X139.384 Y133.674 E.01224
G1 X139.069 Y133.907 E.01229
G1 X138.399 Y134.23 E.02329
G1 X137.987 Y134.339 E.01338
G1 X137.575 Y134.391 E.01303
G1 X135.405 Y134.396 E.06805
G1 X134.755 Y134.305 E.02055
G1 X134.289 Y134.148 E.01541
G1 X133.9 Y133.949 E.01371
G1 X133.552 Y133.704 E.01336
G1 X133.197 Y133.365 E.01537
G1 X130.727 Y130.477 E.11916
G1 X128.244 Y133.377 E.11973
G1 X127.916 Y133.69 E.01419
G1 X127.559 Y133.943 E.01372
G1 X126.915 Y134.242 E.02225
G1 X126.561 Y134.335 E.0115
G1 X126.173 Y134.388 E.01226
G1 X123.955 Y134.396 E.06954
G1 X123.341 Y134.313 E.01944
G1 X122.84 Y134.148 E.01653
G1 X122.452 Y133.949 E.0137
G1 X122.082 Y133.686 E.01423
G1 X121.749 Y133.366 E.01449
G1 X119.278 Y130.477 E.11919
G1 X116.795 Y133.377 E.11973
G1 X116.488 Y133.672 E.01334
G1 X116.142 Y133.924 E.01341
G1 X115.501 Y134.23 E.02228
G1 X115.087 Y134.34 E.01341
G1 X114.674 Y134.392 E.01307
G1 X112.479 Y134.394 E.06881
G1 X111.891 Y134.313 E.01861
G1 X111.416 Y134.159 E.01565
G1 X111.024 Y133.962 E.01375
G1 X110.653 Y133.703 E.01419
G1 X110.299 Y133.365 E.01536
G1 X107.904 Y130.566 E.11551
G1 X107.643 Y130.183 E.01454
G1 X107.456 Y129.799 E.01339
G1 X107.293 Y129.256 E.01776
G1 X107.231 Y128.695 E.01772
G1 X107.23 Y116.997 E.36677
G1 X107.33 Y116.322 E.02139
G1 X107.507 Y115.822 E.01664
G1 X107.724 Y115.422 E.01428
G1 X107.985 Y115.073 E.01365
G1 X108.29 Y114.767 E.01354
G1 X108.634 Y114.507 E.01353
G1 X109.013 Y114.296 E.01362
G1 X109.446 Y114.131 E.01451
G1 X110.137 Y113.978 E.02218
G1 X107.866 Y111.317 E.10969
G1 X107.657 Y111.007 E.01171
G1 X107.493 Y110.688 E.01127
G1 X107.284 Y110.015 E.02209
G1 X107.229 Y109.473 E.01706
G1 X107.233 Y97.769 E.367
G1 X107.33 Y97.122 E.02051
G1 X107.519 Y96.596 E.01752
G1 X107.724 Y96.221 E.0134
G1 X107.983 Y95.876 E.01354
G1 X108.289 Y95.569 E.01357
G1 X108.657 Y95.292 E.01444
G1 X109.037 Y95.085 E.01359
G1 X109.419 Y94.939 E.01281
G1 X110.136 Y94.777 E.02303
G1 X107.866 Y92.117 E.10965
G1 X107.657 Y91.807 E.01171
G1 X107.493 Y91.488 E.01125
G1 X107.293 Y90.855 E.02082
G1 X107.229 Y90.274 E.01833
G1 X107.23 Y78.598 E.3661
G1 X107.32 Y77.963 E.0201
G1 X107.53 Y77.371 E.01971
G1 X107.738 Y77 E.01332
G1 X107.878 Y76.817 E.00722
M204 S1000
G1 X108.178 Y77.044 F10800
M204 S800
G1 F1200
G1 X108.279 Y76.911 E.00524
G1 X108.548 Y76.643 E.01192
G1 X108.853 Y76.414 E.01194
G1 X109.185 Y76.232 E.01188
G1 X109.564 Y76.09 E.01268
G1 X109.914 Y76.012 E.01123
G1 X110.308 Y75.98 E.0124
G1 X116.824 Y75.981 E.20432
G1 X117.354 Y76.043 E.01671
G1 X117.8 Y76.181 E.01466
G1 X118.219 Y76.395 E.01476
G1 X118.626 Y76.707 E.01608
G1 X118.968 Y77.092 E.01613
G1 X119.283 Y77.594 E.0186
G1 X119.496 Y77.217 E.01356
G1 X119.727 Y76.912 E.01201
G1 X119.996 Y76.644 E.01193
G1 X120.323 Y76.401 E.01275
G1 X120.657 Y76.221 E.0119
G1 X121.014 Y76.09 E.01192
G1 X121.391 Y76.008 E.01209
G1 X121.757 Y75.98 E.01152
G1 X128.254 Y75.98 E.20371
G1 X128.735 Y76.029 E.01515
G1 X129.216 Y76.168 E.0157
G1 X129.665 Y76.393 E.01576
G1 X130.075 Y76.707 E.01618
G1 X130.417 Y77.092 E.01615
G1 X130.733 Y77.594 E.0186
G1 X130.945 Y77.217 E.01356
G1 X131.176 Y76.912 E.01201
G1 X131.446 Y76.643 E.01194
G1 X131.75 Y76.415 E.01191
G1 X132.106 Y76.221 E.01274
G1 X132.463 Y76.089 E.01192
G1 X132.814 Y76.012 E.01128
G1 X133.206 Y75.98 E.01233
G1 X139.722 Y75.981 E.20429
G1 X140.215 Y76.035 E.01556
G1 X140.664 Y76.168 E.01468
G1 X141.115 Y76.394 E.0158
G1 X141.497 Y76.682 E.01501
G1 X141.885 Y77.117 E.01828
G1 X142.108 Y77.487 E.01353
G1 X142.285 Y77.942 E.01531
G1 X142.377 Y78.399 E.01461
G1 X142.392 Y90.35 E.37474
G1 X142.311 Y90.903 E.01751
M73 Q2 S32
G1 X142.109 Y91.447 E.0182
G1 X141.764 Y91.979 E.01986
G1 X139.412 Y94.725 E.11338
G1 X138.948 Y95.179 E.02036
M73 P2 R32
G1 X139.743 Y95.182 E.02495
G1 X140.252 Y95.243 E.01605
G1 X140.698 Y95.381 E.01464
G1 X141.147 Y95.614 E.01585
G1 X141.553 Y95.934 E.01623
G1 X141.887 Y96.32 E.01598
G1 X142.124 Y96.718 E.01453
G1 X142.294 Y97.173 E.01523
G1 X142.381 Y97.634 E.01471
G1 X142.392 Y109.549 E.37357
G1 X142.312 Y110.099 E.01745
G1 X142.128 Y110.61 E.01701
G1 X141.778 Y111.159 E.02041
G1 X139.412 Y113.926 E.11415
G1 X138.948 Y114.379 E.02036
G1 X139.743 Y114.382 E.02495
G1 X140.252 Y114.443 E.01605
G1 X140.698 Y114.581 E.01464
G1 X141.147 Y114.814 E.01585
G1 X141.552 Y115.133 E.01618
G1 X141.885 Y115.517 E.01592
G1 X142.108 Y115.887 E.01357
G1 X142.303 Y116.405 E.01736
G1 X142.381 Y116.834 E.01367
G1 X142.392 Y128.749 E.37357
G1 X142.312 Y129.299 E.01745
G1 X142.128 Y129.81 E.017
G1 X141.763 Y130.379 E.0212
G1 X139.4 Y133.138 E.11392
G1 X139.133 Y133.392 E.01155
G1 X138.86 Y133.592 E.01061
G1 X138.284 Y133.87 E.02006
G1 X137.925 Y133.967 E.01164
G1 X137.562 Y134.014 E.0115
G1 X135.418 Y134.019 E.06722
G1 X134.827 Y133.934 E.01872
G1 X134.448 Y133.806 E.01254
G1 X134.106 Y133.633 E.01201
G1 X133.781 Y133.404 E.01246
G1 X133.465 Y133.1 E.01374
G1 X131.083 Y130.313 E.11497
G1 X130.712 Y129.768 E.02066
G1 X130.315 Y130.379 E.02285
G1 X127.963 Y133.125 E.11337
